src/img/spt-integral.svg

<svg width="168" height="172" viewBox="0 0 168 172" fill="none" xmlns="http://www.w3.org/2000/svg">
<circle cx="55.4437" cy="150.579" r="20.4212" stroke="#A6727C" stroke-width="2"/>
<circle cx="21.4212" cy="105.216" r="20.4212" stroke="#A6727C" stroke-width="2"/>
<circle cx="34.0218" cy="47.2528" r="20.4212" stroke="#A6727C" stroke-width="2"/>
<circle cx="84.4252" cy="21.4212" r="20.4212" stroke="#A6727C" stroke-width="2"/>
<circle cx="134.827" cy="47.2528" r="20.4212" stroke="#A6727C" stroke-width="2"/>
<circle cx="146.168" cy="105.216" r="20.4212" stroke="#A6727C" stroke-width="2"/>
<circle cx="111.517" cy="150.579" r="20.4212" stroke="#A6727C" stroke-width="2"/>
<path d="M108.017 87.2124H105.238C104.122 76.8888 95.2386 68.6741 84.6513 68.6741C78.485 68.6741 72.8876 71.4732 69.0741 75.8745C68.3027 76.7475 68.4243 77.8213 69.2154 78.3892C70.0272 78.9572 70.9795 78.7754 71.65 78.0247C73.2684 76.1677 75.2667 74.6797 77.5096 73.6614C79.7526 72.6431 82.188 72.1182 84.6513 72.1222C88.8545 72.1083 92.9167 73.6368 96.0681 76.4181C99.2195 79.1994 101.241 83.0401 101.75 87.2124H98.7272C97.2871 87.2124 96.9019 88.1863 97.6922 89.3015L102.216 95.7719C102.865 96.7053 103.839 96.726 104.508 95.7719L109.051 89.3222C109.863 88.1863 109.477 87.2124 108.017 87.2124ZM61.3057 91.5327H64.0842C65.2003 101.856 74.0838 110.051 84.6504 110.051C90.8572 110.051 96.4555 107.231 100.269 102.851C100.999 101.978 100.897 100.883 100.127 100.315C99.3158 99.7475 98.3627 99.95 97.6931 100.701C94.5699 104.331 89.904 106.603 84.6513 106.603C80.4532 106.618 76.3958 105.091 73.248 102.314C70.1003 99.5359 68.081 95.6999 67.5728 91.5327H70.5952C72.0353 91.5327 72.4205 90.539 71.6302 89.4446L67.0859 82.9732C66.4378 82.0408 65.4838 82.02 64.8141 82.9732L60.2707 89.4239C59.4597 90.5399 59.845 91.5327 61.3057 91.5327Z" fill="#734C56"/>
</svg>

<svg width="168" height="172" fill="none" xmlns="http://www.w3.org/2000/svg"><circle cx="55.444" cy="150.579" r="20.421" stroke="#A6727C" stroke-width="2"/><circle cx="21.421" cy="105.216" r="20.421" stroke="#A6727C" stroke-width="2"/><circle cx="34.022" cy="47.253" r="20.421" stroke="#A6727C" stroke-width="2"/><circle cx="84.425" cy="21.421" r="20.421" stroke="#A6727C" stroke-width="2"/><circle cx="134.827" cy="47.253" r="20.421" stroke="#A6727C" stroke-width="2"/><circle cx="146.168" cy="105.216" r="20.421" stroke="#A6727C" stroke-width="2"/><circle cx="111.517" cy="150.579" r="20.421" stroke="#A6727C" stroke-width="2"/><path d="M108.017 87.212h-2.779c-1.116-10.323-10-18.538-20.587-18.538-6.166 0-11.763 2.8-15.577 7.2-.771.874-.65 1.947.141 2.515.812.568 1.764.386 2.435-.364a17.21 17.21 0 0 1 13.001-5.903 17.168 17.168 0 0 1 17.099 15.09h-3.023c-1.44 0-1.825.974-1.035 2.09l4.524 6.47c.649.933 1.623.954 2.292 0l4.543-6.45c.812-1.136.426-2.11-1.034-2.11zm-46.711 4.32h2.778c1.116 10.324 10 18.519 20.566 18.519 6.207 0 11.805-2.82 15.619-7.2.73-.873.628-1.968-.142-2.536-.811-.567-1.764-.365-2.434.386-3.123 3.63-7.789 5.902-13.042 5.902a17.146 17.146 0 0 1-17.078-15.07h3.022c1.44 0 1.826-.994 1.035-2.088l-4.544-6.472c-.648-.932-1.602-.953-2.272 0l-4.543 6.45c-.811 1.117-.426 2.11 1.035 2.11z" fill="#734C56"/></svg>
